X: 40515
T: Tommy Gunn's
R: reel
M: 4/4
K: Dmajor
|D2DB AGFE|DEFD E~B3|D2DB ADFA|(3BcdAF EFDz|
D2DB AGFE|D~F3 E~B3|D2DB ADFA|(3BcdAF EFDz|
d2dc dAFA|defd egfe|defe dAFA|(3BcdAF EFDz|
d2dc dAFA|dzfd egfe|defe dAFA|(3BcdAF EFDz|
agfa g2ag|f2df ed(3Bcd|Adfa gfDg|fage fDDz|
~a3f ~g3e|~f2df edBd|Adfa gfeg|fage fDDz|
Adfd Acec|Adfd edcB|Adfd Acec|dfed Addz|
Adfd Acec|Azfd edcB|Adfd Acec|dfef dz|

